svg/furkot/mapbox-maki/commercial.svg

<svg viewBox="0 0 512 512" xmlns="http://www.w3.org/2000/svg"><path d="m512 196.539h-512c3.47-54.466 16.818-107.847 39.386-157.539h433.23c22.57 49.692 35.914 103.073 39.384 157.539zm-433.23 39.384h354.46v236.307h-39.384v-196.923h-118.153v196.923h-196.923zm39.384 118.154h118.155v-78.77h-118.155z"/></svg>

<svg viewBox="0 0 512 512" xmlns="http://www.w3.org/2000/svg"><path d="M 512 196.539 L 0 196.539 C 3.47 142.073 16.818 88.692 39.386 39 L 472.616 39 C 495.186 88.692 508.53 142.073 512 196.539 Z M 78.77 235.923 L 433.23 235.923 L 433.23 472.23 L 393.846 472.23 L 393.846 275.307 L 275.693 275.307 L 275.693 472.23 L 78.77 472.23 L 78.77 235.923 Z M 118.154 354.077 L 236.309 354.077 L 236.309 275.307 L 118.154 275.307 L 118.154 354.077 Z"/></svg>
